svg/home_search.svg

<svg xmlns="http://www.w3.org/2000/svg" viewBox="0 0 24 24"><path d="M19.31 18.9c.44-.69.69-1.52.69-2.4 0-2.5-2-4.5-4.5-4.5S11 14 11 16.5s2 4.5 4.5 4.5c.87 0 1.69-.25 2.38-.68L21 23.39 22.39 22zm-3.81.1a2.5 2.5 0 0 1 0-5 2.5 2.5 0 0 1 0 5M5 20v-8H2l10-9 10 9h-1.82c-1.18-1.23-2.84-2-4.68-2-3.58 0-6.5 2.92-6.5 6.5 0 1.29.38 2.5 1.03 3.5z"/></svg>

<?xml version="1.0" encoding="UTF-8"?><!DOCTYPE svg PUBLIC "-//W3C//DTD SVG 1.1//EN" "http://www.w3.org/Graphics/SVG/1.1/DTD/svg11.dtd"><svg xmlns="http://www.w3.org/2000/svg" xmlns:xlink="http://www.w3.org/1999/xlink" version="1.1" id="mdi-home-search" width="24" height="24" viewBox="0 0 24 24"><path d="M19.31 18.9C19.75 18.21 20 17.38 20 16.5C20 14 18 12 15.5 12S11 14 11 16.5 13 21 15.5 21C16.37 21 17.19 20.75 17.88 20.32L21 23.39L22.39 22L19.31 18.9M15.5 19C14.12 19 13 17.88 13 16.5S14.12 14 15.5 14 18 15.12 18 16.5 16.88 19 15.5 19M5 20V12H2L12 3L22 12H20.18C19 10.77 17.34 10 15.5 10C11.92 10 9 12.92 9 16.5C9 17.79 9.38 19 10.03 20H5Z" /></svg>
